!!!OTL: Vom christlichen Abschied aus dieser Welt
!!!ARE: Europa, Mitteleuropa, Deutschland
!!!SCT: A0254B
!!!YEM: Copyright 1995, estate of Helmut Schaffrath.
**kern
*ICvox
*Ivox
!! Mixed meters:  6/4; 4/4
*M6/4
*k[b-]
*F:
{4f
=1
2f
4g
2a
4cc
=2
2b-
2a
4r}
{4a
=3
2cc
4cc
2g
4a
=4
2f
2e
4r}
{4f
=5
*M4/4
4g
4a
4b-
4a
=6
2g
4r}
{4a
=7
*M6/4
2f
4g
2a
4cc
=8
2b-
2a
4r}
{4a
=9
2cc
4cc
2g
4a
=10
2f
2e
4r}
{4c
=11
*M4/4
2f
2g
=12
2a
2b-
=13
2a
2g
=14
2.f}
==
!!!AGN: Romanze, Ballade, Lied
!! 1555
!!!ONB: ESAC (Essen Associative Code) Database: ALTDEU
!!!AMT: irregular
!!!AIN: vox
!!!EED: Helmut Schaffrath
!!!EEV: 1.0
*-
